X:14690
T:Ryan's, Sean
M:2/4
L:1/8
K:D Major
ef/e/ dB|BA B/c/d|ef/e/ dB|BA A2|!
ef/e/ dB|BA B/c/d|ab/a/ gc|[1 ed d2:|[2 ed de|]!
f3/e/ fA|B/c/d ef|g3/f/ ga|ba f/g/a|!
f3/e/ fA|B/c/d ef|ab/a/ gc|[1 ed de:|[2 ed d2|]!
